icons/speech-bubble-star-outline.svg

<svg xmlns="http://www.w3.org/2000/svg" width="24" height="24" viewBox="0 0 24 24">
  <path d="M15,3 C19.5522847,3 23,6.44771525 23,11 C23,15.5522847 19.5522847,19 15,19 L15,19 L14.492,19 L14.4215793,19.0906275 C13.7103901,19.9663638 12.948642,20.6393906 11.8907103,21.256749 L11.8907103,21.256749 L11.5946555,21.4238497 L11.2369286,21.6140163 L10.9086251,21.7821926 C9.57755795,22.4597178 8,21.4937799 8,20 L8,20 L8,19 C4.27285013,19 1,15.3634999 1,11 C1,6.5377729 4.49099359,3 9,3 L9,3 Z M15,5 L9,5 C5.60156611,5 3,7.6364271 3,11 C3,14.3031668 5.42714987,17 8,17 L8,17 L9,17 C9.55228475,17 10,17.4477153 10,18 L10,18 L10,19.999 L10.3113445,19.8411503 L10.6455572,19.6634269 C11.7740931,19.0468761 12.4641772,18.4017399 13.194037,17.4080341 C13.3824481,17.1515119 13.6817197,17 14,17 L14,17 L15,17 C18.4477153,17 21,14.4477153 21,11 C21,7.55228475 18.4477153,5 15,5 L15,5 Z M12.2212829,7.18140769 C12.3198892,7.23007281 12.3997029,7.30988657 12.448368,7.40849288 L13.3225168,9.17971176 L15.2771729,9.46373992 C15.5504453,9.50344873 15.7397861,9.75717015 15.7000773,10.0304426 C15.684265,10.1392611 15.6330214,10.2398323 15.5542796,10.3165866 L14.1398772,11.6952882 L14.4737723,13.6420462 C14.5204528,13.9142144 14.3376589,14.1726924 14.0654907,14.2193729 C13.9571118,14.2379613 13.8456278,14.220304 13.7482976,14.1691344 L12,13.25 L10.2517024,14.1691344 C10.0072801,14.2976348 9.70496657,14.2036616 9.57646617,13.9592393 C9.52529663,13.861909 9.50763929,13.750425 9.52622772,13.6420462 L9.86012284,11.6952882 L8.4457204,10.3165866 C8.24797861,10.123836 8.24393246,9.80727937 8.43668307,9.60953758 C8.51343737,9.53079576 8.61400857,9.47955217 8.72282709,9.46373992 L10.6774832,9.17971176 L11.551632,7.40849288 C11.6738431,7.16086605 11.973656,7.05919655 12.2212829,7.18140769 Z"/>
</svg>

<svg xmlns="http://www.w3.org/2000/svg" viewBox="0 0 24 24">
  <path d="M15 3c4.55 0 8 3.45 8 8s-3.45 8-8 8h-.5l-.08.1a8.85 8.85 0 0 1-2.53 2.16l-.3.16-.35.2-.33.16A2 2 0 0 1 8 20v-1c-3.73 0-7-3.64-7-8 0-4.46 3.5-8 8-8zm0 2H9c-3.4 0-6 2.64-6 6 0 3.3 2.43 6 5 6h1a1 1 0 0 1 1 1v2l.31-.16.34-.18a7.16 7.16 0 0 0 2.54-2.25A1 1 0 0 1 14 17h1c3.45 0 6-2.55 6-6s-2.55-6-6-6zm-2.78 2.18c.1.05.18.13.23.23l.87 1.77 1.96.28a.5.5 0 0 1 .27.86l-1.41 1.38.33 1.94a.5.5 0 0 1-.72.53L12 13.25l-1.75.92a.5.5 0 0 1-.72-.53l.33-1.94-1.41-1.38a.5.5 0 0 1 .27-.86l1.96-.28.87-1.77a.5.5 0 0 1 .67-.23z"/>
</svg>
